X:50
T:Controversial
Z: id:dc-reel-45
M:C
L:1/8
K:G Major
A|BABe dBB2|gabg abge|edBd gedB|A2GB A2GA|!
Bdde dBB2|gfgb abge|edBd gedB|GBAF G3:|!
A|Bdd2 AdBA|GEDE GABd|gbaf gedB|A2GB A2GA|!
Bdd2 AdBA|GEDE GABd|bgaf gedB|GBAF G3:|!

